src/About/images/facebook.svg

﻿<svg xmlns="http://www.w3.org/2000/svg" xmlns:xlink="http://www.w3.org/1999/xlink" viewBox="0 0 50 50" version="1.1" width="50" height="50" style="fill: #fefeff;">
<g id="surface1">
<path style=" " d="M 40 0 L 10 0 C 4.484375 0 0 4.484375 0 10 L 0 40 C 0 45.515625 4.484375 50 10 50 L 40 50 C 45.515625 50 50 45.515625 50 40 L 50 10 C 50 4.484375 45.515625 0 40 0 Z M 39 17 L 36 17 C 33.855469 17 33 17.503906 33 19 L 33 22 L 39 22 L 38 28 L 33 28 L 33 48 L 26 48 L 26 28 L 23 28 L 23 22 L 26 22 L 26 19 C 26 14.324219 27.582031 11 33 11 C 35.902344 11 39 12 39 12 Z "/>
</g>
</svg>

﻿<?xml version="1.0" encoding="UTF-8"?>
<svg fill="#fefeff" version="1.1" viewBox="0 0 50 50" xmlns="http://www.w3.org/2000/svg">
<path d="m40 0h-30c-5.5156 0-10 4.4844-10 10v30c0 5.5156 4.4844 10 10 10h30c5.5156 0 10-4.4844 10-10v-30c0-5.5156-4.4844-10-10-10zm-1 17h-3c-2.1445 0-3 0.50391-3 2v3h6l-1 6h-5v20h-7v-20h-3v-6h3v-3c0-4.6758 1.582-8 7-8 2.9023 0 6 1 6 1z"/>
</svg>
